X: 1
T: Fjynnasvalsen
M: 3/4
L: 1/8
R: waltz
K: Dmaj
&quot;D&quot;f3 f f2|fg fe dc|d2 c2 c2|&quot;G&quot;B3 c B2|
&quot;A&quot;c3 d e2|ef ed cB|A2 B2 B2|&quot;D&quot;A3 B A2|
F3 G A2|AB A2 F2|&quot;G&quot;G3 A B2|&quot;Em&quot;Bc B2 G2|
&quot;A&quot;c3 d e2|ef e2 c2|&quot;D&quot;d3 f af|d6:|
|:&quot;D&quot;f3 g a2|&quot;Bm&quot;d3 e f2|&quot;G&quot;B3 c d2|&quot;Em&quot;EF G2 E2|
&quot;A&quot;e3 f ge|cd e2 c2|&quot;D&quot;A3 B AG|FA df &quot;A&quot;a2|
&quot;D&quot;f3 g a2|&quot;Bm&quot;d3 e f2|&quot;G&quot;B3 c d2|&quot;Em&quot;EF G2 E2|
&quot;A&quot;e3 f ge|cd e2 c2|&quot;D&quot;d3 f af|d6:|
